X: 81
T: L'autre d'antan
N: Derived from Ock3009-Lautre_dantan.krn
C: Johannes Ockeghem
%%abc-version 2.0
%%abcx-abcm2ps-target-version 5.9.1 (29 Sep 2008)
%%abc-creator hum2abc beta
%%abcx-conversion-date 2019/02/17 07:26:16
%%abc-edited-by Jesse Rodin
%%abc-edited-by Chris Gage 06-25-2012
%%abcx-initial-encoding-date 2012/06/30/
%%humdrum-veritas 3549897870
%%humdrum-veritas-data 1487514223
%%linebreak <none>
%%barnumbers 0
L: 1/4
M: 3/1
Q: 1/2=120
V: 1 clef=treble
V: 2 clef=treble-8
V: 3 clef=treble-8
K: C
[V:1] z12 | 
[V:2] z12 | 
[V:3] D6E2F4 | 
[V:1] z12 | 
[V:2] G6A2B4 | 
[V:3] G6FED4 | 
[V:1] G6A2B4 | 
[V:2] c8d4 | 
[V:3] C8z4 | 
[V:1] c8B4 | 
[V:2] e8d4 | 
[V:3] C8G4- | 
[V:1] G4A8 | 
[V:2] B4c8 | 
[V:3] G4F8 | 
[V:1] B8z4 | 
[V:2] B6c2d4 | 
[V:3] G6F2D4 | 
[V:1] B4B4c4 | 
[V:2] G8z4 | 
[V:3] d8e4 | 
[V:1] d8d4 | 
[V:2] G4G4G4 | 
[V:3] d4g8 | 
[V:1] d8c4 | 
[V:2] D8z4 | 
[V:3] f6d2e4 | 
[V:1] B4A8 | 
[V:2] z4z4d4 | 
[V:3] g8^f4 | 
[V:1] G8z4 | 
[V:2] e8d4 | 
[V:3] g8f4 | 
[V:1] z12 | 
[V:2] c4B8 | 
[V:3] e4d4z4 | 
[V:1] c4c4c4 | 
[V:2] A12 | 
[V:3] a6g2f4 | 
[V:1] G8A4 | 
[V:2] c4c4c4 | 
[V:3] e8e4 | 
[V:1] B8A4 | 
[V:2] G8c4- | 
[V:3] d4g8 | 
[V:1] G4F8 | 
[V:2] c4d8 | 
[V:3] c6A2B4 | 
[V:1] E12 | 
[V:2] A8G4 | 
[V:3] c6d2e4 | 
[V:1] z12 | 
[V:2] F4E8 | 
[V:3] d8^c4 | 
[V:1] !fermata!A8A4- | 
[V:2] !fermata!D8z4 | 
[V:3] !fermata!d12 | 
[V:1] A4G4F2E2 | 
[V:2] z4z4c4 | 
[V:3] c6B2A4 | 
[V:1] D12 | 
[V:2] d8B4- | 
[V:3] B4G8 | 
[V:1] G8A4 | 
[V:2] B4c4A4 | 
[V:3] d4e4f4 | 
[V:1] B8G4 | 
[V:2] G6A2B4 | 
[V:3] g6f2d4 | 
[V:1] A8c4 | 
[V:2] c4A8 | 
[V:3] z2c4d2e2f2 | 
[V:1] d4e6c2 | 
[V:2] G4c8 | 
[V:3] g12- | 
[V:1] c8B4 | 
[V:2] e4d8 | 
[V:3] g4f8 | 
[V:1] c8z4 | 
[V:2] c8c4 | 
[V:3] g12 | 
[V:1] e8d4 | 
[V:2] c8B4- | 
[V:3] z12 | 
[V:1] B4B2c2d4 | 
[V:2] B2c2d4G4 | 
[V:3] G6A2B4 | 
[V:1] G4c8 | 
[V:2] c8A4 | 
[V:3] c4A8 | 
[V:1] B4A8 | 
[V:2] d8d4 | 
[V:3] D6E2F4 | 
[V:1] B8z4 | 
[V:2] G6A2B4 | 
[V:3] G6FED4 | 
[V:1] G6A2B4 | 
[V:2] c4d4c2B2 | 
[V:3] C4G8 | 
[V:1] c8B4 | 
[V:2] A8G4 | 
[V:3] F4c4d4 | 
[V:1] G4A8 | 
[V:2] F2E2D4A4 | 
[V:3] e4f4e2d2 | 
[V:1] G8^F4 | 
[V:2] B4A8 | 
[V:3] d8c4 | 
[V:1] G12 |]  
[V:2] G12 |]  
[V:3] d12 |]  



